X:0852
T:Lady Shaftsbury's Strathsy.
M:2/4
L:1/8
Q:1/4=120
I: :: ||
Z:Jack Campin * www.campin.me.uk * 2009
K:D
f/e/|dA``FA|    d>e(fb)|afed|ceef/e/|dA``FA |    d>efb|a<fe>f|d3:|
a   |d'c'ba|{c'}d'2 db |afed|ceea   |d'c'ba |{c'}d'2db|a>fe>f|d3
a   |d'c'ba|{c'}d'2 db |afed|ceef/e/|dA``B<d|    A<dBb|a>fe>f|d3|]

